X:1
T:Samuel (Sullivan), 66.66.88
T:Arthur Seymour Sullivan, 1874
T:Samuel (Sullivan), 66.66.88
T:Public Domain
C:Arthur Seymour Sullivan, 1874
Z:Public Domain
%%score ( 1 2 ) ( 3 4 )
L:1/8
M:4/4
K:D
V:1 treble 
V:2 treble 
V:3 bass 
V:4 bass 
V:1
 [DF]4 [DF]2 [FA]2 | [CG]3 [CF] [CG]2 [CB]2 | [DA]2 [D^G]2 [DA]2 [Dd]2 | (d4 c2) [Ad]2 | %4
 [GB]2 [DA]2 [DG]2 [CA]2 | [DF]2 [E^G]2 [EA]2 [FB]2 | E4 z2 B2 x2 | [CA]6 A2 | %8
 [Ge]3 [Gc] [FA]2 [EG]2 | [DF]2 [CG]2 [DA]2 D2 | D2 [B,GB]2 [B,FA]2 [B,EG]2 | [A,D]4 z2 E2 x2 | %12
 D8 |] %13
V:2
 x8 | x8 | x8 | E6 x2 | x8 | x8 | c6 D4 | x6 A2 | x8 | x6 D2 | D2 x6 | F6 C4 | D8 |] %13
V:3
 [D,A,]4 [A,,A,]2 [A,,A,]2 | [E,A,]3 [^D,A,] [E,A,]2 [A,,A,]2 | [F,A,]2 [F,A,]2 [F,,A,]2 [B,,G,]2 | %3
 [A,,A,]6 [F,D]2 | [G,D]2 [F,A,]2 [E,B,]2 [A,,A,]2 | [D,A,]2 [D,B,]2 [C,A,]2 [D,A,]2 | %6
 [E,A,]4 [E,^G,]4 x2 | [A,,A,]6 A,2 | [A,C]3 [A,,C] [B,,D]2 [C,A,]2 | %9
 [D,A,]2 [E,A,]2 [F,A,]2 [F,A,]2 | [G,B,]2 [G,,D,]2 [G,,^D,]2 [G,,E,]2 | [A,,F,]4 [A,,G,]4 x2 | %12
 [D,F,]8 |] %13
V:4
 x8 | x8 | x8 | x8 | x8 | x8 | x10 | x6 A,2 | x8 | x8 | x8 | x10 | x8 |] %13

